source/img/icons/placemark.svg

<svg width="9" height="14" viewBox="0 0 9 14" fill="none" xmlns="http://www.w3.org/2000/svg">
<path d="M4.24385 0.747417C3.70153 0.747904 3.16521 0.866165 2.66885 1.0947C2.17248 1.32324 1.72687 1.65708 1.3602 2.0751C0.993532 2.49312 0.713794 2.98622 0.538702 3.52319C0.363611 4.06016 0.296967 4.6293 0.342997 5.19461C0.423014 6.1756 0.843115 6.90808 1.40073 7.67457C2.71102 9.50577 3.47367 11.7058 4.24884 13.8222C4.999 11.7451 5.74917 9.60517 7.01445 7.78967C7.51455 7.08074 7.95214 6.44244 8.10217 5.55561C8.20144 4.96605 8.17614 4.36091 8.02808 3.78266C7.88001 3.20441 7.61275 2.66707 7.24507 2.20837C6.87739 1.74968 6.41819 1.38073 5.89972 1.12744C5.38125 0.874152 4.81606 0.742656 4.24385 0.742188V0.747417ZM4.24385 6.06574C3.99657 6.06574 3.75483 5.98902 3.54922 5.8453C3.34362 5.70157 3.18338 5.49729 3.08875 5.25829C2.99412 5.01928 2.96936 4.75629 3.0176 4.50256C3.06584 4.24883 3.18492 4.01578 3.35977 3.83285C3.53463 3.64992 3.7574 3.52534 3.99993 3.47487C4.24246 3.4244 4.49384 3.4503 4.7223 3.5493C4.95075 3.6483 5.14603 3.81595 5.28341 4.03105C5.42079 4.24615 5.49411 4.49904 5.49411 4.75774C5.49411 5.10464 5.36239 5.43733 5.12792 5.68263C4.89345 5.92793 4.57544 6.06574 4.24385 6.06574Z" fill="#999999"/>
</svg>

<svg width="9" height="14" fill="none" xmlns="http://www.w3.org/2000/svg"><path d="M4.244.747c-.542 0-1.079.12-1.575.348a3.928 3.928 0 00-1.309.98 4.143 4.143 0 00-.82 1.448 4.276 4.276 0 00-.196 1.672c.08.98.5 1.713 1.058 2.48 1.31 1.83 2.073 4.03 2.848 6.147.75-2.077 1.5-4.217 2.765-6.032.5-.71.938-1.348 1.088-2.234.1-.59.074-1.195-.074-1.773a4.17 4.17 0 00-.783-1.575A3.948 3.948 0 005.9 1.128 3.777 3.777 0 004.244.741v.005zm0 5.319c-.247 0-.49-.077-.695-.22a1.297 1.297 0 01-.46-.588 1.364 1.364 0 01-.071-.755c.048-.254.167-.487.342-.67.175-.183.397-.308.64-.358a1.2 1.2 0 01.722.074c.229.1.424.267.561.482a1.351 1.351 0 01-.155 1.652 1.223 1.223 0 01-.884.383z" fill="#999"/></svg>
